public/images/instagram.svg

<svg fill="none" height="40" viewBox="0 0 40 40" width="40" xmlns="http://www.w3.org/2000/svg" xmlns:xlink="http://www.w3.org/1999/xlink"><clipPath id="a"><path d="m10 10h20v20h-20z"/></clipPath><path d="m0 20c0-11.04569 8.95431-20 20-20 11.0457 0 20 8.95431 20 20 0 11.0457-8.9543 20-20 20-11.04569 0-20-8.9543-20-20z" fill="#fff" fill-opacity=".1"/><g clip-path="url(#a)" stroke="#fff" stroke-linecap="round" stroke-linejoin="round" stroke-width="1.66667"><path d="m24.167 11.667h-8.3333c-2.3012 0-4.1667 1.8655-4.1667 4.1667v8.3333c0 2.3012 1.8655 4.1667 4.1667 4.1667h8.3333c2.3012 0 4.1667-1.8655 4.1667-4.1667v-8.3333c0-2.3012-1.8655-4.1667-4.1667-4.1667z"/><path d="m23.3337 19.4753c.1029.6935-.0156 1.4018-.3385 2.0241-.3229.6224-.8338 1.127-1.4601 1.4422-.6263.3153-1.336.425-2.0282.3136s-1.3317-.4382-1.8275-.934c-.4957-.4957-.8225-1.1352-.9339-1.8274-.1114-.6923-.0017-1.402.3135-2.0282.3152-.6263.8199-1.1372 1.4422-1.4601.6224-.323 1.3307-.4414 2.0242-.3386.7074.1049 1.3624.4346 1.8681.9403s.8353 1.1606.9402 1.8681z"/><path d="m24.583 15.417h.0083"/></g></svg>

<svg width="40" height="40" viewBox="0 0 40 40" fill="none" xmlns="http://www.w3.org/2000/svg">
<path d="M0 20C0 8.95431 8.95431 0 20 0C31.0457 0 40 8.95431 40 20C40 31.0457 31.0457 40 20 40C8.95431 40 0 31.0457 0 20Z" fill="white" fill-opacity="0.1"/>
<g clip-path="url(#clip0_154_3186)">
<path d="M24.167 11.667H15.8337C13.5325 11.667 11.667 13.5325 11.667 15.8337V24.167C11.667 26.4682 13.5325 28.3337 15.8337 28.3337H24.167C26.4682 28.3337 28.3337 26.4682 28.3337 24.167V15.8337C28.3337 13.5325 26.4682 11.667 24.167 11.667Z" stroke="white" stroke-width="1.66667" stroke-linecap="round" stroke-linejoin="round"/>
<path d="M23.3337 19.4753C23.4366 20.1688 23.3181 20.8771 22.9952 21.4994C22.6723 22.1218 22.1614 22.6264 21.5351 22.9416C20.9088 23.2569 20.1991 23.3666 19.5069 23.2552C18.8147 23.1438 18.1752 22.817 17.6794 22.3212C17.1837 21.8255 16.8569 21.186 16.7455 20.4938C16.6341 19.8015 16.7438 19.0918 17.059 18.4656C17.3742 17.8393 17.8789 17.3284 18.5012 17.0055C19.1236 16.6825 19.8319 16.5641 20.5254 16.6669C21.2328 16.7718 21.8878 17.1015 22.3935 17.6072C22.8992 18.1129 23.2288 18.7678 23.3337 19.4753Z" stroke="white" stroke-width="1.66667" stroke-linecap="round" stroke-linejoin="round"/>
<path d="M24.583 15.417H24.5913" stroke="white" stroke-width="1.66667" stroke-linecap="round" stroke-linejoin="round"/>
</g>
<defs>
<clipPath id="clip0_154_3186">
<rect width="20" height="20" fill="white" transform="translate(10 10)"/>
</clipPath>
</defs>
</svg>
